X: 12
T:Knocknabower Polka No. 1, The
T:Humours of Ballydesmond, The
T:Scartaglen Polka, The
M:2/4
L:1/8
R:Polka
K:G
G2 G>A|Bd de/2f/2|gB B/2A/2G/2A/2|BA AB/2A/2|!
G2 G>A|Bd de/2f/2|gB AB/2A/2|G2 GD:|!
|:Gg g>g|fe e/2f/2g/2e/2|dB B/2A/2G/A/2|BA AB/2A/2|!
Gg g>g|fe e/2f/2g/2e/2|dB AB/2A/2|1G2 GD:|2G2 GB/2d/2|!
|:g2 ag/2a/2|ab ba|gf/2g/2 ag/2a/2|ab ba|!
ge e/2f/2g/2e/2|dB g>e|dB AB/2A/2|1G2 GB/2d/2:|2G2 GD|]!
